
ve 
fcf 20 20 20
; fcc hasard 200  hasard 200 0
TO TREE :SIZE
IF :SIZE > 5 [
        fcc hasard 200  hasard 200 0
		FD :SIZE / 3
		LT 30 TREE :SIZE * 0.66 RT 30
		FD :SIZE / 6
		RT 25 TREE :SIZE / 2 LT 25
		FD :size / 3
		RT 25 TREE :SIZE / 2 LT 25
		FD :SIZE / 6
		BK :SIZE
]
END
TREE 150
